X: 28
T:Lads of Laoise
M:C
L:1/8
K:EMinor
GF|:EB, ~B,2 EGFE| DA, ~A,2 DEFA | GEED EFGA| B2 eB dBAF |
E2 B,E GEB,E| D2 A,D FDA,D| E2 BE dEBE| DEFA BAGF :|
|: eB ~B2 egfe| ~d2 fa gfed| (3Bcd ef gfge| fgaf gfed|
eB ~B2 GBFB| EBBA Bdef| g2 ga f2 fg| efed B2 :|
